X:4
T:the Duke of Gordon's Birthday
M:4/4
L:1/8
R:Strathspey
Z:Toby A. Rider <darkrider1@earthlink.NET>
K:G
| D<G GB G>B | dB A/A/A A>B | G>A G>F E>D E<C | D>B, A,B, G,/G,/ G,G, :|
e \
| (g>a) (g>e) d/d/d d>B | (g>b) (a>g) e/e/e e>f | g<d e<g d<g B<G | A>G B<A G/G/G G>B |
| (g>a) (g>e) d/d/d d>B | g>b a>g e/e/e e>f | g>d eg d>g B>b | a>g a>b (g>e) (d<B) :|
